dist/img/35.svg

<svg version="1.1" xmlns="http://www.w3.org/2000/svg" xmlns:xlink="http://www.w3.org/1999/xlink" x="0px" y="0px" width="371px" height="512px"><path d="M113.7975235,178.6438599c-1.7597275-3.1825409-7.2954483,2.4322662-11.9726257,5.1201019C88,188.375,75.2343292,173.4485016,71.7586517,156.2192688c-2.6526489-13.1494293,4.0529175-24.8634338,11.8760529-27.9144592c14.1854172-5.5323181,23.979805-1.936348,27.8530121,19.0986176c7.5844116,0.0335999,13.3542023-0.7586365,15.9693832-4.6106415C127,132.5,122.4593506,123.607193,122.6281204,115.746582c0.4404907-20.5162125,9.8044662-34.8540649,3.1035309-56.2321129c0.4440308-5.8837166,13.8233719-21.0025139,31.8907242-32.7495804C170.8186188,18.1849232,182.8333282,11.5,201.5003357,11.3333359C217.6970673,11.1887274,232.9334869,14.3106012,258.6666565,26.5c6.3333435,3,19,19,27.598053,30.2234459c0.230957,0.5389595,0.0962219,0.5774612-1.2896423,0.3849716c-12.2348328-2.2043762-19.117218,3.7289047-18.6133423,11.8571129c6.605896-5.1934166,19.2258301-4.056488,27.9681396,5.0816193C315,93,301.3333435,187.6666718,284.724823,208.86409C271,235.1666718,255.8333282,244.3333282,227.0176239,250.9029694c-12.4356995,1.8830261-25.6357422-0.6329346-38.1842957-7.9862976c-14.3055878-8.3829956-29.5-23.5833435-40.4653778-41.6942444c0.1255035,13.9478302,25.2363129,40.7707367,39.6559601,48.7127228c-6.2600555,0.1596069-16.5005798-2.6465149-20.8501129,4.9715271C127.0795441,253.8887177,123.3333359,242.1666718,112,214.8333282c-2.2658234-5.4646301-4.8333359-13.3333282-5.0549698-18.1343231C103.8529663,187.9224548,116.2613297,186.2718048,113.7975235,178.6438599z M123.2293167,54.6830978c-5.0149384,2.9624062-7.460907-1.0174789-16.6229324,1.9259796c-9.9602051,3.1998825-11.7738266,3.4409409-11.6532135,2.8476601c7.6187057-20.5279846,53.3142395-42.4901772,57.8034515-38.3816299h0.0192566c1.6938782,1.3474026,0.3713684,3.6516399-2.5985565,4.6774025C148.375,26.375,138.3568726,34.5439644,135.5127563,37.555851C132.4375,40.8125,129.2446136,49.2759781,123.2293167,54.6830978z M79.438797,120.2822266c-1.639801-20.3311157-2.162941-36.2534027,10.1824799-46.2735596c12.4679871-10.1196365,29.816185-13.6234589,30.3742371-10.7791977h-0.0192032c4.8023987,15.9428558-2.1080933,33.1580811-1.7277603,53.1341553c0.1231232,6.4666367,4.5578995,15.9180527,3.3061447,20.318367c-0.7955093,1.4842529-2.1203079,1.953476-4.3886871,2.3098297C116.2983246,122.9494781,99.875,110.5,79.438797,120.2822266z M296.4471436,353.3631287C303.5,332.25,324.75,274.25,323.606842,264.1652527C323.875,253,306.5,246.25,287.9585266,225.3793793c-1.496521-2.6324158,0.8334656-7.3894958,3.7457886-12.4699402c13.0728149-20.8132629,18.2839661-57.6381073,20.237915-87.7573242C378.75,198.25,364.25,294.5,332.9809265,341.8909912C310.64328,344.7016296,296.4042053,355.5412903,296.4471436,353.3631287z M269.8070984,243.6270752c0.5212097-1.0467224,8.4260254-7.647583,9.9322815-8.8928375c2.8743591,1.8285522,9.2241516,8.3655396,15.9272766,14.3490906c7.4239807,6.6270142,15.1878357,12.8207855,17.103302,16.5448151c1.0201721,2.0403748,1.0201721,2.0788574,0.8276672,5.6590881c-5.5890808,33.4960022-20.4802246,71.3314514-26.8990173,82.6296997c-1.9029541,3.3495789-7.8061218,3.4306335-16.3910217,3.757843c-7.9111328,0.32724-10.5674438,0.7122192-12.9735107,1.9248657c-1.5013885,0.7699585-1.924881,0.8084412-1.924881,0.1347351c0-0.6736755,30.8554535-51.663147,32.1258698-54.1654358c1.8769836-1.5679932-5.7801514-7.1356506-5.8708191-10.1824951c3.8032227-10.0061646,4.6905212-24.9610291,1.2205811-36.635376C278.5652771,244.218399,272.8656006,247.5886536,269.8070984,243.6270752z M49.4688644,283.9335327c19.7954788-17.4081421,41.0895386-29.9590302,63.3662796-39.3248291c3.352356,0.5787964,8.3728485,8.4281921,14.1091614,14.3786926c6.4045715,6.6437073,20.667923,13.6257629,37.0534973,21.1349182c7.168869,27.044342,9.3355255,45.8776855,21.8471069,40.5375061c1.2126465-0.4427185,2.4060669-0.8084412,2.5985565-0.8084412c3.1777039,1.3734741-9.7465057,10.6825256-5.6590729,17.227478c6.1974487,6.6060791,26.0751801,14.3020325,41.8849182,21.6739197c-29.1546173,1.4595032-64.9818115,5.6222229-84.5012054,6.9872131c-2.3254852-2.1955872-3.8347778-10.5733337-1.0201569-44.3294373c0-8.0651855-3.8689728-8.0074158-5.3511047,0.0962219c-2.3376312,5.5119324,4.9671783,34.0574036-1.3437805,41.946106c-4.8260345-1.020874-11.0537415-7.8538818-13.1888885-6.721283c-0.7699432,1.1934204-0.0384903,3.195282,2.0596085,5.6398315c3.2054138,4.1569824,2.3736267,6.7637329-3.0605316,7.6031799c-4.1961975,0.9046936-6.0247955,2.2328186-6.0247955,4.4849243c-0.9322815,2.5533142,11.6979065-1.9043884,23.6179886,1.4628906c1.632782,15.570343,4.8325043,40.3848267,8.1036377,65.6183777c-6.2375793,1.0514221-17.9922485-0.973175-35.8780594-8.5720215c-9.0679321-3.8525696-19.8200226-10.3554382-32.0116425-16.1816406C74.731575,375.1251831,69.1071396,328.75,49.4688644,283.9335327z M272.3287354,255.95578c7.1917725,4.5759888,8.6118469,31.382782,3.7342224,37.3710632c-11.1172485-0.7536011-23.9651337-2.1254883-30.9709778-4.3501587l0.0962677-10.1632385c1.5570526-1.625885,5.2714691-2.1466675,9.7841797-2.2585144c1.1511078-0.1771851,0.4131927-0.7563477-4.8180695-1.7259216c-2.1320038-0.3386841-2.0209656-0.4338684-3.5802155-0.1539917c-1.982605,0.3849792-2.4638214,0.0577698-2.9835358-1.7901001c-1.6531067-4.4161682-2.0593567-3.9786682-0.5004425-4.5811462C254.4763336,261.5528564,263.3754272,252.9349213,272.3287354,255.95578z M235.1019897,266.3980713C220.5,267.3125,215.890625,263.421875,211.4638672,260.2937622c-1.2346954-1.0229187-0.2555389-1.7937622,1.9257355-1.3063965c10.0270691,3.8042908,20.0687256-1.4040222,34.1084442-3.4647522c0.7301483,0.0175476,0.8132477,0.6545715-0.0577087,1.2704468L235.1019897,266.3980713z M162.9968719,268.8618774c-0.1924896,1.5783997-0.2887421,1.6938782-1.05867,1.6938782c-13.4455566-2.3401489-25.3909912-9.1445312-23.8874817-13.0697937c0.6159515-1.9859619,0.3187714-1.5901489,4.4175568,0.0769958C150.8125,260.4375,165.25,259.0625,164.4790039,261.3356934L162.9968719,268.8618774z M173.6412659,259.9883423c3.5306091-3.42276,8.7779694-1.6383972,22.3237457,3.0980225C210.375,268.125,211.6875,273,220.415329,274.0205078c0.3752747,1.9012146,0.9118958,2.3531189-1.0201721,3.3877563c-4.507431,1.9026794-6.6256866,2.0438843-9.6820374,2.9450378c-1.6938477,0.4812012-2.0788422,1.2896423-0.4427185,0.9624023c1.8671112-0.3849792,11.2026672,2.2520752,12.1650848,3.426239c0.323288,1.3287659,0.1061707,4.1729431-0.0385132,6.8139954c-6.7988129,4.6466064-10.6642761,9.4543152-16.6350861,13.1047058c-11.1782684,6.834137-22.7919464,10.5186157-25.9812469,7.8762207C170.125,292.5,165.8674622,274.0757751,173.6412659,259.9883423z M231.0020599,287.53302c-2.5566254,0-3.3992615,0.0247192-3.9620819-1.2683411l-2.0627136-10.0498047c-0.2506561-1.7118835,0.0577545-2.0210876,0.9046936-2.4445801c5.4141235-3.3100586,10.063736-2.0066528,11.760849,1.982605C239.7445526,280.6932983,238.0550537,287.6419373,231.0020599,287.53302z M248.9993896,351.5537109C239.1666718,335,233.6666718,315,221.8781433,298.9281311l3.2915039-4.3694153c7.2876282,1.4010315,8.3368378-2.8909607,14.6364136-2.5247192c3.5951843,0.2090149,7.0321045,6.2263184,14.9871521,6.8171692C253.818985,325.510437,252.1883545,345.9339905,248.9993896,351.5537109z M259.7521667,299.6644592c8.8392334-4.9441528,18.7789307,0.2340393,22.5858154,7.4251099c-10.762085,19.7553406-23.2754822,40.1291809-29.289566,46.2825928C256.75,337.625,259.3346252,317.9594116,259.7521667,299.6644592z M189.7523499,331.4774475c3.7318878-13.8332214,13.8413239-19.5513611,26.1395569-27.5832214c9.5205078,10.5611267,17.4936066,30.065033,25.4273682,49.7960815C239.3333282,355.3333435,204.834549,341.1463623,189.7523499,331.4774475z M344.2413635,418.2692871c-8.90802,3.7307129-26.7789917,3.3796692-27.9681396,0.8854675c0.493866-2.384491,20.9910889-4.8674011,20.9809265-5.7938232c-4.0990295-2.5228577-18.5297546-2.0504456-36.6107788-0.5197449c-1.8086243-17.8109131-3.5925293-35.8131714-6.5445251-44.7721558c4.9011536-5.7356873,22.7251892-10.0069885,30.1994934-13.223175C329.75,352.5,338.4166565,345.8333435,347.0324097,360.3695984C353.5,379.5,365.1815186,406.2466125,344.2413635,418.2692871z M281.4333496,417.3260803c-0.9580994-9.6968994-3.9958496-28.8260803-6.4867859-47.9674377c0.073761-0.5091858-0.9773254-1.2787476,10.4533386-0.6781006c6.5200195,10.9643555,8.4211731,27.0614624,8.2947693,45.4117737C287.7373352,416.4518738,284.1795654,417.0690308,281.4333496,417.3260803z M164.6329956,494.3972778c-12.4682312-39.7315063-20.4801941-79.3201294-23.9644623-118.7636414c29.8314667-5.800293,67.1647949-10.300293,101.5361633-4.3308716C247,427.5,247.2951965,477.671936,251.2130432,496.2066956C228.0909271,502.5286255,200.5528717,503.5209656,164.6329956,494.3972778z M251.270752,427.7010803c-1.4822998-19.8347778-2.5980835-39.1480713-2.1558228-56.2443237c4.42099-1.0868835,9.0241394-1.9267273,15.2011719-1.1759338c3.6127319,13.9444885,4.4237976,36.9323425,5.9354858,53.098877c0.0292053,0.3125305,0.0206604,0.9499512-0.1557312,1.2800903C262.4663391,426.1001892,252.3189545,428.3336792,251.270752,427.7010803z M269.941925,473.4741516c-5.934845,2.2232971-11.4307556,3.5809631-16.111084,3.3299866c-1.0980835-14.7340393-1.3513794-29.6318054-1.6938629-39.9985352c7.4347992-0.1852722,12.7108002-4.4233704,12.3961029,0.4042664C266.2316284,448.6427002,270.0372925,459.5406494,269.941925,473.4741516z M275.6972046,119.1273193c-1.2511597,0.3272324-1.3858948,0.4427109-1.3858948,1.3088989c0,3.0797729,2.213562,5.8900604,5.312561,6.8139954c5.0238953,1.443634,13.6472473-1.1934128,18.1899109-5.5050964c2.7910461-2.6948013,2.752533-2.5023117,0.4812012-6.275032c-1.8478699-3.041275-5.5628357-10.4712143-9.4510193-18.9020996c-0.8662109-1.9248581-1.6746521-3.4647446-1.7901306-3.4647446c-0.1539917,0-0.2406006,1.1260529-0.2406006,2.4734421c0,4.350174,1.0683289,8.6522446,3.9171143,15.7742081c0.8661804,2.175087,1.5398865,4.2539291,1.4628906,4.6389084C291.875,118.0416641,280.75,117.9166641,275.6972046,119.1273193z M216.8543854,114.5846405c-4.0421753-4.2346878-4.908371-5.6398392-8.065155-13.0697784c-1.1934204-2.7910461-3.5802612-7.8726578-3.5802612-7.8726578C202.8125,102.6875,212.875,117.0625,214.0440979,121.0906601c-0.9849243,2.3659515-5.9960785,3.1554184-11.2685699,2.3659515c-7.8813171-1.1800919-11.2108612-2.3180389-11.6949921-0.652832c-1.0578918,2.1096039-1.1982574,3.7840958,0.4649353,5.7307205c3.3636017,3.9367981,13.4185181,5.2569733,20.4962006,3.8404999c3.3476257-0.6699677,4.9500885-2.2760162,6.8723145-3.8928986c2.7526855-2.3154373,3.5026855-6.4404373,1.8776855-9.3154373C219.9690094,117.7111893,218.4380035,116.4006882,216.8543854,114.5846405z M233.2156372,183.2827759c23.4320068,1.3255005,35.9501953-7.6931305,49.4880371-15.7453156c0.5022278-3.0516205,2.1090088-7.0414581,3.0797729-10.7214661c0.6352234-3.0797577,0.3849792-3.5609894-5.0238647-8.8735962c-13.9359741-13.6472168-29.1230927-34.7436676-30.9324493-43.0397949c-1.1487732-5.4915619-4.5871887-5.5252762-4.0037079-1.4051437C245.7364197,118.9317627,260,136.875,273.0794067,151.2531586c3.8900757,3.8867645,5.5455933,9.3718414,0.9816895,15.1101379c-8.6285706,4.0495453-17.2372742,8.0843506-22.3283386,9.5088043c-18.2136383,2.9801025-17.1910858,0.6695709-20.3457184-10.5674896c0-0.0577393-0.115509-0.1347351-0.3272247-0.1347351C229.4583282,166.2083282,225.625,175.6666718,233.2156372,183.2827759z M106.733284,158.2981567c3.4218521-21.9355164-21.6121826-31.870903-25.4968414-13.7194214c0.4574966,1.474884,2.1410675-4.1370239,7.4801865-2.4686432c-2.7046356,10.088501-2.0653152,17.8885803,1.4327927,23.7438507c1.1839142,1.4793854,0.4876251-13.3156891,1.5892258-16.4486389c1.4346085-3.8905792,4.4248352-5.4667053,6.8446884-3.7386322C100.8212433,147.2648163,103.4166641,154.4166718,106.733284,158.2981567z M253.6576538,202.1848755c0.0393982-4.5397491-0.0391541-8.7711639-0.6736908-11.5491486c-16.858963-0.2607269-36.1776581-0.3321838-47.6594543-5.7745667c-0.5197144-0.2309875-0.4812164-0.0288696,0.3272095,1.4917603C210.108902,195.239212,228.8807068,203.496582,253.6576538,202.1848755z M198.067749,198.6816406c4.044632,3.7630157,8.2340851,10.3925934,12.0111237,14.9176331C220.75,226.75,248.9166718,223.5,257.2571106,217.8917084c1.0009155-0.8276978,3.2915039-4.0422058,3.2915039-4.5811615c-27.4652863-0.1438751-48.7152863,1.4394531-57.7457123-15.5335846c-1.089859-2.580246-1.6238251-2.3587494-3.8228607-1.8631897C196.9048767,196.3814087,197.1270599,197.3955078,198.067749,198.6816406z M330.7202759,365.848999c-4.7330933-0.5266418-19.6481628,2.1783447-25.7074585,11.0551147C312.5748901,378.0959473,321.8545532,368.9665833,330.7202759,365.848999z M336.5997009,381.9857483c1.2079163-0.3882141-9.2287903-2.7375793-17.2247009-2.3190918c-4.5831909,0.2398682-9.2341003,2.6342163-8.2219238,3.6664734C316.2632751,383.8885498,325.692749,383.1572266,336.5997009,381.9857483z M339.1019897,395.6714783c-8.5835266-2.6696167-23.85849-5.1600952-28.7188721-0.5774841C311.7486877,396.0181885,341.9746704,396.5438843,339.1019897,395.6714783z M66.7540741,116.4327164C69.5147324,112.6876373,70.0291672,121.6284485,69,124.375c-15.1666679,18.9583282-4.3156509,66.5682373,27.6855469,72.0930481c-0.352211,14.6986237,11.8832169,27.2679443,11.9762115,33.8173981C108.75,236.5,91,241.875,53.8333321,266.6666565c-6.7695541,4.515564-14.5,6.666687-15.1437073,13.4941711C37.75,292.25,60.5,330.25,63.8667603,374.6905823C12.125,330.25-25,205.6666718,66.7540741,116.4327164z M142.4971313,452.6279602c5.1755219,18.1954956,10.4624023,37.2851257,16.9772491,52.875824C187.5,513.75,215.3391418,512.5495605,242.1469879,509.9309692c11.6277313-1.6575623,15.7247772-5.3865051,17.8455353-10.9534912c0.4924927-1.2928162-0.9849854-6.5871582-0.8105469-12.4719849c8.9982605-1.8723755,16.7532043-2.0782776,19.4983521-11.20578c2.4842224-8.2601318-7.5553284-32.4247131-3.9647522-41.3813477C280,432.6875,283.5625,430.125,282.9924927,424.5827942c6.0112915-3.3853149,14.9244995-4.5638428,25.4658508-4.5041504c0.8085022,1.5257568,1.8014221,3.0348816,3.0220337,4.5234375c1.1934204,1.3858948,1.2511597,1.4051514,4.5426636,1.982605c10.0670166,1.7323914,15.9769592,1.4986572,28.2761536,0.0962219C364.125,424.5,368.625,392.625,363.0472717,377.6933594c-2.8102722-9.7590332-6.4675293-19.6913147-9.2008362-24.9846497c-4.6031799-7.8313904-7.79776-7.5119324-9.0275574-9.2200623C386,275,379.557251,172.9916077,311.3263245,108.6368484c-0.9964905-44.1517563-19.5888672-73.2351913-56.9929962-97.9701843C233.6666718-3,171.6666718-4,142.3624115,13.3756771c-25.762825,13.956625-50.1178284,23.3477497-57.1489868,48.6411285c-13.4294357,7.7020149-17.0102539,22.4024391-17.8434372,39.0553474C-24,179.75-20.5,316,65.0793991,391.629303c1.2923889,14.6673889-0.598053,32.8530273,4.6389084,36.3220215c9.2636719,5.3351746,18.7707291,8.1675415,26.6174774,12.2358398C109.5819244,447.0549011,121.304245,453.4895935,142.4971313,452.6279602z M195.3333282,71.1666641c2-1.25,2.4100494-9.3380775-9.9166565-10.4166641C182.0603485,60.4563217,175.590332,63.4919243,170.25,68c-6.4166718,5.4166641-9.0905609,10.6407471-10.5,15.25c-0.6025848,1.9706345-0.7276459,3.6858902-0.5762024,5.0360336c0.1595306,1.4223022,1.7428741,3.2556305,2.1595306,3.2139664C164.3912659,91.1942062,167.6666718,67,195.3333282,71.1666641z M258.56604,190.2315063c-0.2887268,0.4812164-0.3464661,8.1998901-0.0577698,9.9322662c0.1925049,1.1934204,0.2502441,1.2126465,1.5398865,1.2126465C275.8125,200.125,285.25,188.5,290.9228516,177.0462341C263.1666565,192.5833282,261.9523621,187.9115143,258.56604,190.2315063z M245.4964905,306.868988c0-2.8077698-3.0349731-4.5721741-5.4498444-3.1682739s-2.414856,4.9326782,0,6.3365784C242.4615173,311.4411926,245.4964905,309.6767883,245.4964905,306.868988z M249.2109985,324.3070068c0-2.7686768-3.0169983-4.5085144-5.417572-3.124176s-2.4005737,4.8639832,0,6.2483215S249.2109985,327.0756836,249.2109985,324.3070068z"/></svg>

<svg xmlns="http://www.w3.org/2000/svg" width="371" height="512"><path d="M113.798 178.644c-1.76-3.183-7.296 2.432-11.973 5.12-13.825 4.611-26.59-10.315-30.066-27.545-2.653-13.15 4.053-24.863 11.876-27.914 14.185-5.533 23.98-1.937 27.853 19.098 7.584.034 13.354-.758 15.97-4.61-.458-10.293-4.999-19.186-4.83-27.046.44-20.517 9.805-34.854 3.104-56.233.444-5.883 13.823-21.002 31.89-32.75 13.197-8.58 25.211-15.264 43.878-15.43 16.197-.145 31.433 2.977 57.167 15.166 6.333 3 19 19 27.598 30.223.23.54.096.578-1.29.385-12.235-2.204-19.117 3.73-18.613 11.858 6.606-5.194 19.226-4.057 27.968 5.081C315 93 301.333 187.667 284.725 208.864c-13.725 26.303-28.892 35.47-57.707 42.039-12.436 1.883-25.636-.633-38.185-7.986-14.305-8.383-29.5-23.584-40.465-41.695.125 13.948 25.236 40.771 39.656 48.713-6.26.16-16.5-2.646-20.85 4.972-40.094-1.018-43.84-12.74-55.174-40.074-2.266-5.464-4.833-13.333-5.055-18.134-3.092-8.777 9.316-10.427 6.853-18.055zm9.431-123.96c-5.015 2.962-7.46-1.018-16.623 1.925-9.96 3.2-11.773 3.441-11.653 2.848 7.619-20.528 53.314-42.49 57.804-38.382h.019c1.694 1.348.371 3.652-2.599 4.678-1.802.622-11.82 8.791-14.664 11.803-3.076 3.257-6.268 11.72-12.284 17.127zm-43.79 65.598c-1.64-20.33-2.163-36.253 10.182-46.273 12.468-10.12 29.816-13.624 30.375-10.78h-.02c4.803 15.943-2.108 33.159-1.727 53.135.123 6.466 4.557 15.918 3.306 20.318-.796 1.484-2.12 1.953-4.389 2.31-.868-16.043-17.291-28.492-37.727-18.71zm217.008 233.081c7.053-21.113 28.303-79.113 27.16-89.198.268-11.165-17.107-17.915-35.648-38.786-1.497-2.632.833-7.39 3.745-12.47 13.073-20.813 18.284-57.638 20.238-87.757C378.75 198.25 364.25 294.5 332.981 341.891c-22.338 2.81-36.577 13.65-36.534 11.472zm-26.64-109.736c.521-1.047 8.426-7.648 9.932-8.893 2.875 1.829 9.225 8.366 15.928 14.35 7.424 6.626 15.187 12.82 17.103 16.544 1.02 2.04 1.02 2.079.828 5.66-5.59 33.495-20.48 71.33-26.9 82.629-1.902 3.35-7.806 3.43-16.39 3.758-7.912.327-10.568.712-12.974 1.925-1.501.77-1.925.808-1.925.134 0-.673 30.856-51.663 32.126-54.165 1.877-1.568-5.78-7.136-5.87-10.183 3.802-10.006 4.69-24.96 1.22-36.635-4.32-14.533-10.02-11.162-13.078-15.124zM49.47 283.934c19.795-17.409 41.09-29.96 63.366-39.325 3.353.579 8.373 8.428 14.11 14.378 6.404 6.644 20.667 13.626 37.053 21.135 7.169 27.045 9.335 45.878 21.847 40.538 1.213-.443 2.406-.809 2.598-.809 3.178 1.374-9.746 10.683-5.659 17.228 6.198 6.606 26.076 14.302 41.885 21.674-29.154 1.46-64.982 5.622-84.5 6.987-2.326-2.196-3.836-10.573-1.021-44.33 0-8.065-3.869-8.007-5.351.097-2.338 5.512 4.967 34.057-1.344 41.946-4.826-1.021-11.054-7.854-13.189-6.721-.77 1.193-.038 3.195 2.06 5.64 3.205 4.156 2.373 6.763-3.06 7.603-4.197.904-6.026 2.232-6.026 4.485-.932 2.553 11.698-1.905 23.618 1.462 1.633 15.57 4.833 40.385 8.104 65.619-6.237 1.051-17.992-.973-35.878-8.572-9.068-3.853-19.82-10.356-32.012-16.182-1.338-41.662-6.963-88.037-26.601-132.853zm222.86-27.978c7.192 4.576 8.612 31.383 3.734 37.37-11.117-.753-23.965-2.125-30.971-4.35l.096-10.163c1.557-1.625 5.272-2.146 9.784-2.258 1.152-.177.414-.756-4.818-1.726-2.132-.339-2.02-.434-3.58-.154-1.982.385-2.464.058-2.983-1.79-1.654-4.416-2.06-3.979-.5-4.581 11.385-6.751 20.284-15.37 29.238-12.348zm-37.227 10.442c-14.602.914-19.211-2.976-23.638-6.104-1.235-1.023-.256-1.794 1.926-1.307 10.027 3.805 20.068-1.404 34.108-3.464.73.017.813.654-.058 1.27l-12.338 9.605zm-72.105 2.464c-.193 1.578-.289 1.694-1.059 1.694-13.445-2.34-25.39-9.145-23.887-13.07.616-1.986.318-1.59 4.417.077 8.345 2.875 22.782 1.5 22.011 3.773l-1.482 7.526zm10.644-8.874c3.53-3.422 8.778-1.638 22.324 3.098 14.41 5.039 15.722 9.914 24.45 10.935.376 1.9.912 2.353-1.02 3.387-4.507 1.903-6.626 2.044-9.682 2.945-1.694.482-2.079 1.29-.443.963 1.868-.385 11.203 2.252 12.165 3.426.324 1.329.107 4.173-.038 6.814-6.799 4.647-10.664 9.454-16.635 13.105-11.178 6.834-22.792 10.518-25.981 7.876-8.656-20.037-12.914-38.461-5.14-52.549zm57.361 27.545c-2.557 0-3.4.025-3.962-1.268l-2.063-10.05c-.25-1.712.058-2.021.905-2.445 5.414-3.31 10.064-2.006 11.76 1.983 2.103 4.94.413 11.889-6.64 11.78zM249 351.553C239.167 335 233.667 315 221.88 298.929l3.29-4.37c7.288 1.402 8.337-2.89 14.637-2.524 3.595.209 7.032 6.226 14.987 6.817-.974 26.66-2.605 47.083-5.794 52.703zm10.753-51.889c8.84-4.944 18.78.234 22.586 7.426-10.762 19.755-23.276 40.129-29.29 46.282 3.702-15.747 6.287-35.413 6.704-53.708zm-70 31.813c3.732-13.833 13.842-19.55 26.14-27.583 9.52 10.561 17.494 30.065 25.427 49.796-1.986 1.643-36.484-12.544-51.567-22.213zm154.49 86.792c-8.909 3.731-26.78 3.38-27.969.886.494-2.385 20.991-4.868 20.981-5.794-4.099-2.523-18.53-2.05-36.61-.52-1.81-17.81-3.593-35.813-6.545-44.772 4.901-5.736 22.725-10.007 30.2-13.223 5.451-2.346 14.118-9.013 22.733 5.524 6.468 19.13 18.15 45.877-2.79 57.9zm-62.809-.943c-.958-9.697-3.996-28.826-6.486-47.967.073-.51-.978-1.28 10.453-.678 6.52 10.964 8.421 27.061 8.295 45.411-5.958 2.36-9.515 2.977-12.262 3.234zm-116.8 77.071c-12.468-39.731-20.48-79.32-23.964-118.763 29.831-5.8 67.164-10.3 101.536-4.331 4.795 56.197 5.09 106.369 9.008 124.904-23.122 6.322-50.66 7.314-86.58-1.81zm86.638-66.696c-1.483-19.835-2.598-39.148-2.156-56.244 4.42-1.087 9.024-1.927 15.201-1.176 3.613 13.944 4.424 36.932 5.936 53.099.029.312.02.95-.156 1.28-7.63 1.44-17.777 3.674-18.825 3.041zm18.67 45.773c-5.934 2.223-11.43 3.581-16.11 3.33-1.098-14.734-1.352-29.632-1.694-39.998 7.435-.186 12.71-4.424 12.396.404 1.699 11.433 5.504 22.33 5.409 36.264zm5.756-354.347c-1.251.328-1.386.443-1.386 1.31 0 3.079 2.214 5.89 5.313 6.813 5.024 1.444 13.647-1.193 18.19-5.505 2.79-2.695 2.752-2.502.481-6.275-1.848-3.041-5.563-10.471-9.451-18.902-.866-1.925-1.675-3.465-1.79-3.465-.154 0-.24 1.126-.24 2.474 0 4.35 1.068 8.652 3.916 15.774.867 2.175 1.54 4.254 1.463 4.639-.318 2.052-11.443 1.927-16.496 3.137zm-58.843-4.542c-4.042-4.235-4.908-5.64-8.065-13.07-1.193-2.791-3.58-7.873-3.58-7.873-2.397 9.046 7.666 23.42 8.835 27.449-.985 2.366-5.996 3.155-11.268 2.366-7.882-1.18-11.211-2.318-11.695-.653-1.058 2.11-1.199 3.784.464 5.73 3.364 3.937 13.419 5.257 20.497 3.841 3.347-.67 4.95-2.276 6.872-3.893 2.753-2.315 3.503-6.44 1.878-9.315-.823-1.456-2.354-2.766-3.938-4.582zm16.362 68.698c23.432 1.325 35.95-7.693 49.488-15.746.502-3.051 2.109-7.041 3.08-10.721.635-3.08.384-3.561-5.024-8.874-13.936-13.647-29.124-34.743-30.933-43.04-1.149-5.491-4.587-5.525-4.004-1.405-.087 15.435 14.177 33.378 27.256 47.756 3.89 3.887 5.546 9.372.982 15.11-8.628 4.05-17.237 8.085-22.328 9.51-18.214 2.98-17.191.669-20.346-10.568 0-.058-.115-.135-.327-.135-1.602 1.038-5.435 10.497 2.156 18.113zm-126.483-24.985c3.422-21.935-21.612-31.87-25.497-13.72.458 1.476 2.142-4.136 7.48-2.468-2.704 10.09-2.065 17.89 1.433 23.744 1.184 1.48.488-13.316 1.59-16.449 1.434-3.89 4.424-5.466 6.844-3.738 2.238 1.598 4.834 8.75 8.15 12.631zm146.925 43.887c.04-4.54-.04-8.771-.674-11.55-16.859-.26-36.178-.331-47.66-5.774-.52-.23-.48-.029.328 1.492 4.457 8.886 23.229 17.144 48.006 15.832zm-55.59-3.503c4.044 3.763 8.234 10.392 12.01 14.917 10.672 13.151 38.839 9.901 47.18 4.293 1-.828 3.29-4.042 3.29-4.581-27.465-.144-48.715 1.439-57.745-15.534-1.09-2.58-1.624-2.359-3.823-1.863-2.075.467-1.853 1.482-.912 2.768zM330.72 365.849c-4.733-.527-19.648 2.178-25.707 11.055 7.562 1.192 16.842-7.937 25.707-11.055zm5.88 16.137c1.208-.388-9.23-2.738-17.225-2.32-4.583.24-9.234 2.635-8.222 3.667 5.11.556 14.54-.176 25.447-1.347zm2.502 13.685c-8.584-2.67-23.859-5.16-28.719-.577 1.366.924 31.592 1.45 28.719.577zM66.754 116.433c2.76-3.745 3.275 5.195 2.246 7.942-15.167 18.958-4.316 66.568 27.686 72.093-.353 14.699 11.883 27.268 11.976 33.817.088 6.215-17.662 11.59-54.829 36.382-6.77 4.515-14.5 6.666-15.143 13.494-.94 12.089 21.81 50.089 25.177 94.53C12.125 330.25-25 205.667 66.754 116.433zm75.743 336.195c5.176 18.195 10.463 37.285 16.977 52.876 28.026 8.246 55.865 7.046 82.673 4.427 11.628-1.658 15.725-5.387 17.846-10.954.492-1.292-.985-6.587-.811-12.472 8.998-1.872 16.753-2.078 19.498-11.205 2.485-8.26-7.555-32.425-3.964-41.382 5.284-1.23 8.846-3.793 8.276-9.335 6.012-3.386 14.925-4.564 25.466-4.504a27.198 27.198 0 0 0 3.022 4.523c1.194 1.386 1.252 1.405 4.543 1.983 10.067 1.732 15.977 1.498 28.276.096 19.826-2.181 24.326-34.056 18.748-48.988-2.81-9.759-6.467-19.691-9.2-24.984-4.604-7.832-7.798-7.512-9.028-9.22C386 275 379.557 172.992 311.326 108.637c-.996-44.152-19.589-73.235-56.993-97.97C233.667-3 171.667-4 142.363 13.376c-25.763 13.956-50.118 23.347-57.15 48.64-13.429 7.703-17.01 22.403-17.843 39.056C-24 179.75-20.5 316 65.08 391.63c1.292 14.668-.599 32.853 4.638 36.322 9.264 5.335 18.771 8.168 26.618 12.236 13.246 6.868 24.968 13.303 46.161 12.441zm52.836-381.461c2-1.25 2.41-9.338-9.916-10.417-3.357-.294-9.827 2.742-15.167 7.25-6.417 5.417-9.09 10.64-10.5 15.25-.603 1.97-.728 3.686-.576 5.036.16 1.422 1.743 3.256 2.16 3.214 3.057-.306 6.333-24.5 34-20.333zm63.233 119.065c-.289.48-.346 8.2-.058 9.932.193 1.193.25 1.212 1.54 1.212 15.764-1.251 25.202-12.876 30.875-24.33-27.756 15.537-28.97 10.866-32.357 13.186zm-13.07 116.637c0-2.808-3.034-4.572-5.45-3.168s-2.414 4.932 0 6.336c2.416 1.404 5.45-.36 5.45-3.168zm3.715 17.438c0-2.769-3.017-4.509-5.418-3.124s-2.4 4.864 0 6.248 5.418-.355 5.418-3.124z"/></svg>
